humanity-icon-theme/Humanity/status/16/audio-output-none-panel.svg

<?xml version="1.0" encoding="UTF-8" standalone="no"?>
<!-- Created with Inkscape (http://www.inkscape.org/) -->
<svg id="svg2" xmlns="http://www.w3.org/2000/svg" height="16" width="16" version="1.0">
 <path id="rect3612" style="color:#000000;fill:#606060" d="m10 2v0.3125l-2.6875 2.6875h-2.3125-1v7h1 2.3125l2.6875 2.688v0.312h1v-13h-1zm0 1.6875v9.625l-2.3125-2.312h-0.25-2.4375v-5h2.375 0.3125l2.3125-2.3125z"/>
</svg>

<?xml version="1.0" encoding="UTF-8" standalone="no"?>
<!-- Created with Inkscape (http://www.inkscape.org/) -->

<svg
   xmlns:svg="http://www.w3.org/2000/svg"
   xmlns="http://www.w3.org/2000/svg"
   version="1.0"
   width="16"
   height="16"
   id="svg2">
  <defs
     id="defs4" />
  <path
     d="M 10,2 10,2.3125 7.3125,5 5,5 4,5 4,12 5,12 7.3125,12 10,14.6875 10,15 11,15 11,2 10,2 z m 0,1.6875 0,9.625 L 7.6875,11 7.4375,11 5,11 5,6 7.375,6 7.6875,6 10,3.6875 z"
     id="rect3612"
     style="color:#000000;fill:#606060;fill-opacity:1;stroke:none;stroke-width:1;marker:none;visibility:visible;display:inline;overflow:visible;enable-background:accumulate" />
</svg>
